package/converter/svg/solid/circle-right.svg

<svg xmlns="http://www.w3.org/2000/svg" viewBox="0 0 512 512"><!-- Font Awesome Pro 6.0.0-alpha2 by @fontawesome - https://fontawesome.com License - https://fontawesome.com/license (Commercial License) --><path d="M496 256C496 123.42 388.58 16 256 16S16 123.42 16 256C16 388.582 123.42 496 256 496S496 388.582 496 256ZM265.875 382.781C259.891 380.312 256 374.469 256 368V304H160C142.327 304 128 289.673 128 272V240C128 222.327 142.327 208 160 208H256V144C256 137.531 259.891 131.688 265.875 129.219C271.859 126.734 278.734 128.109 283.313 132.687L395.313 244.687C401.56 250.935 401.56 261.065 395.313 267.312L283.313 379.312C278.734 383.891 271.859 385.266 265.875 382.781Z"/></svg>

<svg xmlns="http://www.w3.org/2000/svg" viewBox="0 0 512 512"><!--! Font Awesome Pro 6.6.0 by @fontawesome - https://fontawesome.com License - https://fontawesome.com/license (Commercial License) Copyright 2024 Fonticons, Inc. --><path d="M0 256a256 256 0 1 0 512 0A256 256 0 1 0 0 256zm395.3 11.3l-112 112c-4.6 4.6-11.5 5.9-17.4 3.5s-9.9-8.3-9.9-14.8l0-64-96 0c-17.7 0-32-14.3-32-32l0-32c0-17.7 14.3-32 32-32l96 0 0-64c0-6.5 3.9-12.3 9.9-14.8s12.9-1.1 17.4 3.5l112 112c6.2 6.2 6.2 16.4 0 22.6z"/></svg>
